!!!SOCIAL_FUNCTION:	unclassified songs
!!!PDT:	1909
!!!OTL: No_192_Friendly_Song_(a).krn
!!!REG: Great_Lakes
!!!LANG: Non-Tone
!!!LING_GROUP: Algonquin
**kern
*staff1
=1-
*clefF4
*k[]
*M3/4
8.c\L
16A\Jk
4c\
4c\
=2||
*M2/4
8.A\L
16F\Jk
4A\
=3||
*M3/4
8.E\L
16E\Jk
4..E\
16E\
=4
2.E\
=5||
*M2/4
12A\L
12E\
12A\J
8A\L
16A\L
16A\JJ
=6||
*k[f#c#g#]
8.E/L
16C#/Jk
[4E\
=7
2E\]
=8
12A\L
12E\
12E\J
16A\LK
8.E\J
=9
8.C#/L
16BB/Jk
4C#/
=10
8.BB/L
16AA/Jk
[4BB/
=11
2BB/]
=12
8.C#/L
16BB/Jk
4C#/
=13
8.BB/L
16AA/Jk
8.C#/L
16BB/Jk
=14
4AA/
8.AA/L
16AA/Jk
=15||
*M3/4
2.AA/
==
*-
